X:187
T:Psallat chorus
C:Manuscript de Montpellier (XIIIe siècle)
R:Motet
M:6/8
L:1/8
Q:1/4=120
K:G 
V:1
g3 fa2 | g3 fd2 | e2f gfe | d2-dz2z | 
B3 ce2 | d3 cB2 | AGA GF2 | G2-Gz2z | 
G3 GA2 | B3 de2 | f3 ef2 | g2-gz2z | 
a3 gf2 | g3 fd2 | e2f gfe | d3 cB2 | 
d2-dz2z | d3 Bc2 | d3 ec2 | d3 gf2 | 
e2-ez2z | g3 fe2 | d3 Bc2 | d3 cBA | 
G2-Gz2z | d3 de2 | f3 ef2 | g3 fd2 | 
e3 f2z | g3 fd2 | e2f2<a2 | (3g/2f/2e/2f2 g3- | g6 |]
V:2
d3 dd2 | d3 cB2 | A3 GF2 | G2-Gz2z | 
e2d c/2B/2A2 | G3 AB2 | d3 ef2 | d2-dz2z | 
g3 fe2 | f3 dc2 | B3 ABc | d2-dz2z | 
e2d cB2 | d3 cB2 | A3 GF2 | G3 AB2 | 
G2-Gz2z | D3 EF2 | D3 EF2 | G3 AB2 | 
B2-Bz2z | d3 ef2 | g3 fe2 | d2e dc2 | 
d2-dz2z | f3 dc2 | B3 Bc2 | d3 cB2 | 
A3 B2z | G3 cB2 | A3 c3 | B/2A/2Bc d3- | d6 |]
V:3 clef=treble-8
G3 D3 | G2-Gz2z | A3 B3 | G2-Gz2z | 
E3 F3 | G2-Gz2z | G3 B3 | d2-dz2z | 
d3 c3 | B2-Bz2z | B3 A3 | G2-Gz2z | 
A3 B3 | G2-Gz2z | A6 | G2-Gz2z | 
G3 D3 | G2-Gz2z | A3 B3 | G2-Gz2z | 
E3 F3 | G2-Gz2z | G3 B3 | d2-dz2z | 
d3 c3 | B2-Bz2z | B3 A3 | G2-Gz2z | 
A3 B3 | G2-Gz2z | A6 | A3 G3- | G6 |]





